**kern	**kern	**kern	**kern	**kern	**kern
*part6	*part5	*part4	*part3	*part2	*part1
*staff6	*staff5	*staff4	*staff3	*staff2	*staff1
*I"低音吉他	*I"钢琴	*I"钢琴	*I"钢琴	*I"钢琴	*I"Melody
*I'B. Guit.	*I'Pno.	*I'Pno.	*I'Pno.	*I'Pno.	*I'Pno.
*clefF4	*clefF4	*clefG2	*clefG2	*clefG2	*clefG2
*Trd0c0	*	*	*	*	*
*k[b-e-]	*k[b-e-]	*k[b-e-]	*k[b-e-]	*k[b-e-]	*k[b-e-]
*M4/4	*M4/4	*M4/4	*M4/4	*M4/4	*M4/4
=1	=1	=1	=1	=1	=1
1r	1r	1r	1r	1r	1r
=2	=2	=2	=2	=2	=2
2e-	4G	2b-	1r	2d	1r
.	4B-	.	.	.	.
2f	8AL	2a	.	2c	.
.	8G	.	.	.	.
.	8F	.	.	.	.
.	8E-J	.	.	.	.
=3	=3	=3	=3	=3	=3
2d	2F	2a	1r	2c	1r
2g	8GL	2f	.	2B-	.
.	8F	.	.	.	.
.	8E-	.	.	.	.
.	8DJ	.	.	.	.
=4	=4	=4	=4	=4	=4
2c	8E-L	2g	1r	2B-	1r
.	8DJ	.	.	.	.
.	4C	.	.	.	.
2d	8FL	2a	.	2c	.
.	8E-J	.	.	.	.
.	4D	.	.	.	.
=5	=5	=5	=5	=5	=5
2e-	8GL	2b-	1r	2d	1r
.	8FJ	.	.	.	.
.	4E-	.	.	.	.
[2f	[2F	[2cc	.	[2e-	.
=6	=6	=6	=6	=6	=6
*MM126	*MM126	*MM126	*MM126	*MM126	*MM126
1f]	1F]	1cc]	1r	1e-]	1r
=7	=7	=7	=7	=7	=7
1r	1r	1r	1r	2r	2r
.	.	.	.	4r	4r
.	.	.	.	8r	8r
*	*	*	*	*clefF4	*clefF4
.	.	.	.	8F	8F
=8	=8	=8	=8	=8	=8
4.B-	4.B-	4.d	4.f	4B-	4B-
.	.	.	.	8B-L	8B-L
[8B-	[8B-	[8d	[8f	[8B-J	[8B-J
2B-]	2B-]	2d]	2f]	8B-L]	8B-L]
.	.	.	.	8A	8A
.	.	.	.	8G	8G
.	.	.	.	8GJ	8GJ
=9	=9	=9	=9	=9	=9
4.A	4.A	4.d	4.f	8GL	8GL
.	.	.	.	8F	8F
.	.	.	.	8D	8D
[8A	[8A	[8d	[8f	8FJ	8FJ
2A]	2A]	2d]	2f]	4r	4r
.	.	.	.	8r	8r
.	.	.	.	8F	8F
=10	=10	=10	=10	=10	=10
4.G	4.B-	4.d	4.g	4B-	4B-
.	.	.	.	8B-L	8B-L
[8G	[8B-	[8d	[8g	[8B-J	[8B-J
2G]	2B-]	2d]	2g]	8B-L]	8B-L]
.	.	.	.	8A	8A
.	.	.	.	8G	8G
.	.	.	.	8GJ	8GJ
=11	=11	=11	=11	=11	=11
4.B-	4.A	4.d	4.f	8GL	8GL
.	.	.	.	8F	8F
.	.	.	.	8D	8D
[8B-	[8A	[8d	[8f	8FJ	8FJ
2B-]	2A]	2d]	2f]	4r	4r
.	.	.	.	8r	8r
.	.	.	.	8D	8D
=12	=12	=12	=12	=12	=12
4.e-	4.B-	4.e-	4.g	4E-	4E-
.	.	.	.	8B-L	8B-L
[8d	[8A	[8d	[8f	[8AJ	[8AJ
2d]	2A]	2d]	2f]	4A]	4A]
.	.	.	.	8DL	8DL
.	.	.	.	8DJ	8DJ
=13	=13	=13	=13	=13	=13
4.e-	4.B-	4.e-	4.g	4E-	4E-
.	.	.	.	8B-L	8B-L
*	*clefG2	*	*	*	*
[8f	[8c	[8f	[8a	[8AJ	[8AJ
2f]	2c]	2f]	2a]	4A]	4A]
.	.	.	.	8B-L	8B-L
.	.	.	.	8B-J	8B-J
=14	=14	=14	=14	=14	=14
4.B-	4d	4f	[1b-	1r	1r
.	8B-L	8dL	.	.	.
[8B-	[8dJ	[8fJ	.	.	.
4.B-]	4d]	4f]	.	.	.
.	8B-L	8dL	.	.	.
8F	[8dJ	[8fJ	.	.	.
=15	=15	=15	=15	=15	=15
4.B-	4d]	4f]	1b-]	2r	2r
*	*clefF4	*	*	*	*
.	8B-L	8dL	.	.	.
[8B-	[8dJ	[8fJ	.	.	.
2B-]	4d]	4f]	.	4r	4r
.	8B-L	8dL	.	8r	8r
.	8dJ	8fJ	.	8F	8F
=16	=16	=16	=16	=16	=16
4B-	4r	4r	4r	4B-	4B-
8r	8B-L	8dL	8fL	8B-L	8B-L
8B-	8B-J	8dJ	8fJ	[8B-J	[8B-J
4r	4r	4r	4r	8B-L]	8B-L]
.	.	.	.	8A	8A
8r	4B-	4d	4f	8G	8G
8B-	.	.	.	8GJ	8GJ
=17	=17	=17	=17	=17	=17
4A	4r	4r	4r	8GL	8GL
.	.	.	.	8F	8F
8r	8AL	8dL	8fL	8D	8D
8A	8AJ	8dJ	8fJ	8FJ	8FJ
4r	4r	4r	4r	4r	4r
8r	4A	4d	4f	8r	8r
8A	.	.	.	8F	8F
=18	=18	=18	=18	=18	=18
4G	4r	4r	4r	4B-	4B-
8r	8B-L	8dL	8gL	8B-L	8B-L
8G	8B-J	8dJ	8gJ	[8B-J	[8B-J
4r	4r	4r	4r	8B-L]	8B-L]
.	.	.	.	8A	8A
8r	4B-	4d	4g	8G	8G
8G	.	.	.	8GJ	8GJ
=19	=19	=19	=19	=19	=19
4B-	4r	4r	4r	8GL	8GL
.	.	.	.	8F	8F
8r	8B-L	8dL	8fL	8D	8D
8B-	8B-J	8dJ	8fJ	8FJ	8FJ
4r	4r	4r	4r	4r	4r
8r	4B-	4d	4f	8r	8r
8B-	.	.	.	8D	8D
=20	=20	=20	=20	=20	=20
4.e-	4.B-	4.e-	4.g	4E-	4E-
.	.	.	.	8B-L	8B-L
[8d	[8A	[8d	[8f	[8AJ	[8AJ
2d]	2A]	2d]	2f]	4A]	4A]
.	.	.	.	8DL	8DL
.	.	.	.	8DJ	8DJ
=21	=21	=21	=21	=21	=21
4.e-	4.B-	4.e-	4.g	4E-	4E-
.	.	.	.	8B-L	8B-L
[8f	[8c	[8f	[8a	[8AJ	[8AJ
2f]	2c]	2f]	2a]	4A]	4A]
.	.	.	.	8B-L	8B-L
.	.	.	.	8B-J	8B-J
=22	=22	=22	=22	=22	=22
4B-	8B-L	8dL	8fL	1r	1r
.	8B-J	8dJ	8fJ	.	.
8r	8r	8r	8r	.	.
8B-	8B-	8d	8f	.	.
4r	8r	8r	8r	.	.
.	8B-	8d	8f	.	.
8r	4r	4r	4r	.	.
8F	.	.	.	.	.
=23	=23	=23	=23	=23	=23
8B-L	2r	2r	4r	4r	4r
8B-J	.	.	.	.	.
4r	.	.	2.b-	8r	8r
*	*	*	*	*clefG2	*clefG2
.	.	.	.	8B-	8B-
2r	4r	2a	.	8B-L	8B-L
.	.	.	.	8c	8c
*	*clefG2	*	*	*	*
.	4f	.	.	8d	8d
.	.	.	.	[8dJ	[8dJ
=24	=24	=24	=24	=24	=24
4e-	2.B-	2.d	2.g	8dL]	8dL]
.	.	.	.	8e-J	8e-J
4e-	.	.	.	4c	4c
4f	.	.	.	8AL	8AL
.	.	.	.	8B-	8B-
4e-	8cL	8fL	8b-L	8c	8c
.	[8cJ	[8fJ	[8b-J	[8cJ	[8cJ
=25	=25	=25	=25	=25	=25
4d	8cL]	8fL]	8b-L]	8cL]	8cL]
*	*	*	*	*clefF4	*clefF4
.	8dJ	8gJ	8ccJ	8B-J	8B-J
4d	4c	4f	4b-	4B-	4B-
4G	8r	8r	8r	8B-L	8B-L
*	*clefF4	*	*	*	*
.	8GL	8e-L	8aL	8B-	8B-
4G	8A	8f	8b-	8c	8c
*	*	*	*	*clefG2	*clefG2
.	8B-J	8gJ	8ccJ	8dJ	8dJ
=26	=26	=26	=26	=26	=26
4e-	2.B-	2.d	2.g	8dL	8dL
.	.	.	.	8c	8c
4e-	.	.	.	8c	8c
.	.	.	.	8cJ	8cJ
4f	.	.	.	8cL	8cL
.	.	.	.	8c	8c
4f	8cL	8fL	8b-L	8e-	8e-
*	*clefG2	*	*	*	*
.	[8cJ	[8fJ	8b-J	[8e-J	[8e-J
=27	=27	=27	=27	=27	=27
4d	8cL]	8fL]	8b-L	8e-L]	8e-L]
.	8dJ	8gJ	8ccJ	8dJ	8dJ
4d	4c	4f	4b-	4d	4d
4G	8r	8r	8r	8B-L	8B-L
.	8GL	8e-L	8aL	8c	8c
*	*clefF4	*	*	*	*
4G	8A	8f	8b-	8d	8d
.	8B-J	8gJ	8ccJ	[8dJ	[8dJ
=28	=28	=28	=28	=28	=28
8e-L	8r	8r	8r	8dL]	8dL]
8e-J	8B-	8d	8g	8c	8c
8r	8r	8r	8r	8c	8c
[8e-	[8B-	[8d	[8g	8cJ	8cJ
8e-]	4.B-]	4.d]	4.g]	8AL	8AL
4e-	.	.	.	8B-	8B-
.	.	.	.	8c	8c
8e-	8r	8r	8r	8cJ	8cJ
=29	=29	=29	=29	=29	=29
8dL	8r	8r	8r	8cL	8cL
*	*	*	*	*clefF4	*clefF4
8dJ	8A	8d	8f	8B-J	8B-J
8r	8r	8r	8r	4d	4d
[8d	[8A	[8d	[8f	.	.
8d]	4.A]	4.d]	4.f]	8B-L	8B-L
4d	.	.	.	8B-	8B-
.	.	.	.	8B-	8B-
8d	8r	8r	8r	8B-J	8B-J
=30	=30	=30	=30	=30	=30
4c	4e-	4f	4b-	4B-	4B-
4c	8e-L	8gL	8ccL	8B-L	8B-L
.	8e-J	8gJ	8ccJ	8B-J	8B-J
4c	2r	2r	2r	2r	2r
4c	.	.	.	.	.
=31	=31	=31	=31	=31	=31
4F	4G	4e-	4b-	4B-	4B-
4F	4F	4d	4a	4A	4A
4F	4G	4e-	4b-	4B-	4B-
8FL	[4A	[4f	[4cc	[4c	[4c
8cJ	.	.	.	.	.
=32	=32	=32	=32	=32	=32
*MM96	*MM96	*MM96	*MM96	*MM96	*MM96
1f	1A]	1f]	1cc]	1c]	1c]
=33	=33	=33	=33	=33	=33
1r	1r	1r	1r	1r	1r
*	*clefG2	*	*	*clefG2	*clefG2
=34	=34	=34	=34	=34	=34
4B-	2d	2f	2b-	4d	4d
8.B-L	.	.	.	8dL	8dL
.	.	.	.	16dL	16dL
16B-Jk	.	.	.	16dJJ	16dJJ
16r	8r	8r	8r	8dL	8dL
8B-'L	.	.	.	.	.
.	8d	8g	8b-	16e-L	16e-L
16B-Jk	.	.	.	16fJJ	16fJJ
4B-	4r	4r	4r	16r	16r
.	.	.	.	16B-KL	16B-KL
.	.	.	.	8B-J	8B-J
=35	=35	=35	=35	=35	=35
4A	2d	2f	2a	8dL	8dL
.	.	.	.	8dJ	8dJ
8.AL	.	.	.	8dL	8dL
.	.	.	.	16dL	16dL
16AJk	.	.	.	16dJJ	16dJJ
16r	8r	8r	8r	8dL	8dL
8A'L	.	.	.	.	.
.	8c	8f	8a	16e-L	16e-L
16AJk	.	.	.	16fJJ	16fJJ
4A	4r	4r	4r	4r	4r
=36	=36	=36	=36	=36	=36
4G	2B-	2d	2g	8dL	8dL
.	.	.	.	8dJ	8dJ
8.GL	.	.	.	8dL	8dL
.	.	.	.	16dL	16dL
16GJk	.	.	.	16dJJ	16dJJ
16r	8r	8r	8r	8fL	8fL
8G'L	.	.	.	.	.
.	8c	8e-	8g	16fL	16fL
16GJk	.	.	.	[16fJJ	[16fJJ
4G	4r	4r	4r	16fLL]	16fLL]
.	.	.	.	16e-	16e-
.	.	.	.	16d	16d
.	.	.	.	[16e-JJ	[16e-JJ
*	*clefF4	*	*	*	*
=37	=37	=37	=37	=37	=37
4F	4c	4e-	2g	4e-]	4e-]
8.FL	8E-L	8e-L	.	4r	4r
.	8FJ	8fJ	.	.	.
16FJk	.	.	.	.	.
16r	8GL	8gL	2r	2r	2r
8F'L	.	.	.	.	.
.	8FJ	8fJ	.	.	.
16FJk	.	.	.	.	.
4F	4G	4g	.	.	.
*	*	*	*	*clefF4	*clefF4
=38	=38	=38	=38	=38	=38
4G	2B-	2e-	2g	8B-L	8B-L
.	.	.	.	8B-J	8B-J
4G	.	.	.	8B-L	8B-L
.	.	.	.	16cL	16cL
.	.	.	.	[16cJJ	[16cJJ
4A	4c	2f	2a	4c]	4c]
4F	4F	.	.	16r	16r
.	.	.	.	8FL	8FL
.	.	.	.	16FJk	16FJk
*	*clefG2	*	*	*clefG2	*clefG2
=39	=39	=39	=39	=39	=39
4B-	4d	4g	4b-	16dLL	16dLL
.	.	.	.	16dJ	16dJ
.	.	.	.	8e-J	8e-J
4A	4c	4f	4a	16dKL	16dKL
.	.	.	.	8A	8A
*	*	*	*	*clefF4	*clefF4
.	.	.	.	[16B-Jk	[16B-Jk
4G	4B-	4e-	4g	4B-]	4B-]
4F	4A	4d	4f	16r	16r
.	.	.	.	16B-KL	16B-KL
.	.	.	.	8B-J	8B-J
=40	=40	=40	=40	=40	=40
4E-	1B-	1e-	1g	8B-L	8B-L
.	.	.	.	8B-	8B-
8.E-L	.	.	.	8B-	8B-
.	.	.	.	8B-J	8B-J
16E-Jk	.	.	.	.	.
16r	.	.	.	8B-L	8B-L
8E-'L	.	.	.	.	.
*	*	*	*	*clefG2	*clefG2
.	.	.	.	8B-J	8B-J
16E-Jk	.	.	.	.	.
8E-L	.	.	.	16cKL	16cKL
.	.	.	.	8B-	8B-
8E-J	.	.	.	.	.
.	.	.	.	[16cJk	[16cJk
=41	=41	=41	=41	=41	=41
4F	4c	4f	4a	4c]	4c]
4G	4r	4g	4r	4r	4r
4A	2r	4a	2r	2r	2r
4c	.	4c	.	.	.
=42	=42	=42	=42	=42	=42
4B-	2d	2f	2b-	4d	4d
8.B-L	.	.	.	8dL	8dL
.	.	.	.	16dL	16dL
16B-Jk	.	.	.	16dJJ	16dJJ
16r	16r	16r	16r	8dL	8dL
8B-'L	8d'L	8g'L	8b-'L	.	.
.	.	.	.	16e-L	16e-L
16B-Jk	16dJk	16gJk	16b-Jk	16fJJ	16fJJ
4B-	4d	4g	4b-	16r	16r
.	.	.	.	8B-L	8B-L
.	.	.	.	[16dJk	[16dJk
=43	=43	=43	=43	=43	=43
4A	2d	2f	2a	16dKL]	16dKL]
.	.	.	.	8d	8d
.	.	.	.	16dJk	16dJk
8.AL	.	.	.	8dL	8dL
.	.	.	.	16dL	16dL
16AJk	.	.	.	16dJJ	16dJJ
16r	16r	16r	16r	8dL	8dL
8A'L	8c'L	8f'L	8a'L	.	.
.	.	.	.	16e-L	16e-L
16AJk	16cJk	16fJk	16aJk	16fJJ	16fJJ
4A	4c	4f	4a	4r	4r
=44	=44	=44	=44	=44	=44
4G	2B-	2d	2g	8dL	8dL
.	.	.	.	8d	8d
8.GL	.	.	.	8d	8d
.	.	.	.	8dJ	8dJ
16GJk	.	.	.	.	.
16r	16r	16r	16r	8fL	8fL
8G'L	8c'L	8e-'L	8g'L	.	.
.	.	.	.	8fJ	8fJ
16GJk	16cJk	16e-Jk	16gJk	.	.
4G	4c	4e-	4g	16fLL	16fLL
.	.	.	.	16e-	16e-
.	.	.	.	16d	16d
.	.	.	.	[16e-JJ	[16e-JJ
=45	=45	=45	=45	=45	=45
4F	4c	4e-	2g	4e-]	4e-]
*	*clefF4	*	*	*	*
8.FL	8E-L	8e-L	.	4r	4r
.	8FJ	8fJ	.	.	.
16FJk	.	.	.	.	.
16r	8GL	8gL	2r	2r	2r
8F'L	.	.	.	.	.
.	8FJ	8fJ	.	.	.
16FJk	.	.	.	.	.
4F	4G	4g	.	.	.
*	*	*	*	*clefF4	*clefF4
=46	=46	=46	=46	=46	=46
4G	2B-	2e-	2g	4B-	4B-
4G	.	.	.	8B-L	8B-L
.	.	.	.	16B-L	16B-L
.	.	.	.	16cJJ	16cJJ
4A	4c	2f	2a	16r	16r
.	.	.	.	16FKL	16FKL
.	.	.	.	8FJ	8FJ
4A	4F	.	.	16r	16r
.	.	.	.	16FKL	16FKL
.	.	.	.	8FJ	8FJ
*	*clefG2	*	*	*clefG2	*clefG2
=47	=47	=47	=47	=47	=47
4B-	4d	4g	4b-	8dL	8dL
.	.	.	.	16e-L	16e-L
.	.	.	.	16e-JJ	16e-JJ
4A	4c	4f	4a	8dL	8dL
.	.	.	.	16AL	16AL
.	.	.	.	16B-JJ	16B-JJ
4G	4B-	4e-	4g	4r	4r
4F	4A	4d	4f	8r	8r
*	*	*	*	*clefF4	*clefF4
.	.	.	.	8B-	8B-
=48	=48	=48	=48	=48	=48
4E-	1B-	1e-	1g	8B-L	8B-L
.	.	.	.	8B-	8B-
8.E-L	.	.	.	8B-	8B-
.	.	.	.	8B-J	8B-J
16E-Jk	.	.	.	.	.
16r	.	.	.	8B-L	8B-L
8E-'L	.	.	.	.	.
*	*	*	*	*clefG2	*clefG2
.	.	.	.	8B-J	8B-J
16E-Jk	.	.	.	.	.
8E-L	.	.	.	8B-L	8B-L
8E-J	.	.	.	16cL	16cL
.	.	.	.	[16cJJ	[16cJJ
=49	=49	=49	=49	=49	=49
4F	4c	4f	4a	4c]	4c]
4G	4r	4g	4r	4r	4r
4F	2r	4a	2r	2r	2r
4F	.	4b-	.	.	.
=50	=50	=50	=50	=50	=50
2A	2r	2cc	1r	2r	2r
2r	16r	2r	.	16r	16r
*	*	*	*	*clefF4	*clefF4
.	16dKL	.	.	16B-KL	16B-KL
.	8dJ	.	.	8B-J	8B-J
.	8cL	.	.	8AL	8AL
.	[8dJ	.	.	[8B-J	[8B-J
=51	=51	=51	=51	=51	=51
*MM126	*MM126	*MM126	*MM126	*MM126	*MM126
1r	1d]	1r	1r	1B-]	1B-]
=52	=52	=52	=52	=52	=52
1r	1r	1r	1r	1r	1r
=53	=53	=53	=53	=53	=53
1r	1r	1r	1r	1r	1r
=54	=54	=54	=54	=54	=54
1r	1r	1r	1r	1r	1r
=55	=55	=55	=55	=55	=55
4.f	8r	8r	8r	2r	2r
*	*clefF4	*	*	*	*
.	8B-L	8b-L	8b-L	.	.
.	8A	8a	8a	.	.
[8e-	8FJ	8fJ	8fJ	.	.
4e-]	8GL	8gL	8gL	4r	4r
.	8F	8f	8f	.	.
4c	8E-	8e-	8e-	8r	8r
.	8CJ	8cJ	8cJ	8F	8F
=56	=56	=56	=56	=56	=56
8B-L	8r	8r	8r	4B-	4B-
8B-J	8B-	8d	8f	.	.
8r	8r	8r	8r	8B-L	8B-L
[8B-	[8B-	[8d	[8f	[8B-J	[8B-J
4B-]	2B-]	2d]	2f]	8B-L]	8B-L]
.	.	.	.	8A	8A
8r	.	.	.	8G	8G
8B-	.	.	.	8GJ	8GJ
=57	=57	=57	=57	=57	=57
8AL	8r	8r	8r	8GL	8GL
8AJ	8A	8d	8f	8F	8F
8r	8r	8r	8r	8D	8D
[8A	[8A	[8d	[8f	[8FJ	[8FJ
4A]	2A]	2d]	2f]	4F]	4F]
8r	.	.	.	8r	8r
8A	.	.	.	8F	8F
=58	=58	=58	=58	=58	=58
8GL	8r	8r	8r	4B-	4B-
8GJ	8d	8g	8b-	.	.
8r	8r	8r	8r	8B-L	8B-L
[8G	[8d	[8g	[8b-	[8B-J	[8B-J
4G]	2d]	2g]	2b-]	8B-L]	8B-L]
.	.	.	.	8A	8A
8r	.	.	.	8G	8G
8G	.	.	.	8GJ	8GJ
=59	=59	=59	=59	=59	=59
8B-L	8r	8r	8r	8GL	8GL
8B-J	8B-	8d	8f	8F	8F
8r	8r	8r	8r	8D	8D
[8B-	[8B-	[8d	[8f	[8FJ	[8FJ
4B-]	2B-]	2d]	2f]	4F]	4F]
8r	.	.	.	8r	8r
8B-	.	.	.	8D	8D
=60	=60	=60	=60	=60	=60
4.e-	4.B-	4.e-	4.g	4E-	4E-
.	.	.	.	8B-L	8B-L
[8d	[8A	[8d	[8f	[8AJ	[8AJ
4d]	2A]	2d]	2f]	4A]	4A]
8r	.	.	.	8DL	8DL
8d	.	.	.	[8E-J	[8E-J
=61	=61	=61	=61	=61	=61
4.e-	4.B-	4.e-	4.g	4E-]	4E-]
.	.	.	.	8B-L	8B-L
[8f	[8c	[8f	[8a	[8AJ	[8AJ
4f]	2c]	2f]	2a]	4A]	4A]
8r	.	.	.	8B-L	8B-L
8F	.	.	.	[8B-J	[8B-J
=62	=62	=62	=62	=62	=62
8B-L	8r	8r	8r	4B-]	4B-]
8B-J	8B-	8d	8f	.	.
8r	8r	8r	8r	4r	4r
[8B-	[8B-	[8d	[8f	.	.
4B-]	2B-]	2d]	2f]	2r	2r
8r	.	.	.	.	.
8F	.	.	.	.	.
=63	=63	=63	=63	=63	=63
8B-L	8r	8r	8r	2r	2r
8B-J	8B-	8d	8f	.	.
8r	8r	8r	8r	.	.
[8B-	[8B-	[8d	[8f	.	.
4B-]	2B-]	2d]	2f]	4r	4r
8r	.	.	.	8r	8r
8B-	.	.	.	8F	8F
=64	=64	=64	=64	=64	=64
1B-	8r	4r	4r	4B-	4B-
.	[4.B-	.	.	.	.
.	.	2.d	8r	8B-L	8B-L
.	.	.	[8f	[8B-J	[8B-J
.	2B-]	.	2f]	8B-L]	8B-L]
.	.	.	.	8A	8A
.	.	.	.	8G	8G
.	.	.	.	8GJ	8GJ
=65	=65	=65	=65	=65	=65
1A	8r	4r	4r	8GL	8GL
.	[4.A	.	.	8F	8F
.	.	2.d	8r	8D	8D
.	.	.	[8f	8FJ	8FJ
.	2A]	.	2f]	4r	4r
.	.	.	.	8r	8r
.	.	.	.	8F	8F
=66	=66	=66	=66	=66	=66
1G	8r	4r	4r	4B-	4B-
.	[4.d	.	.	.	.
.	.	2.g	8r	8B-L	8B-L
.	.	.	[8b-	[8B-J	[8B-J
.	2d]	.	2b-]	8B-L]	8B-L]
.	.	.	.	8A	8A
.	.	.	.	8G	8G
.	.	.	.	8GJ	8GJ
=67	=67	=67	=67	=67	=67
1B-	8r	4r	4r	8GL	8GL
.	[4.B-	.	.	8F	8F
.	.	2.d	8r	8D	8D
.	.	.	[8f	8FJ	8FJ
.	2B-]	.	2f]	4r	4r
.	.	.	.	8r	8r
.	.	.	.	8D	8D
=68	=68	=68	=68	=68	=68
4.e-	4B-	4e-	4g	4E-	4E-
.	8B-L	8e-L	8gL	8B-L	8B-L
[8d	[8AJ	[8dJ	[8fJ	[8AJ	[8AJ
2d]	4A]	4d]	4f]	4A]	4A]
.	4A	4d	4f	8DL	8DL
.	.	.	.	8DJ	8DJ
=69	=69	=69	=69	=69	=69
4.e-	4B-	4e-	4g	4E-	4E-
.	8B-L	8e-L	8gL	8B-L	8B-L
*	*clefG2	*	*	*	*
[8f	[8cJ	[8fJ	[8aJ	[8AJ	[8AJ
2f]	4c]	4f]	4a]	4A]	4A]
.	8dL	8gL	8b-L	8B-L	8B-L
.	8dJ	8gJ	8b-J	8B-J	8B-J
=70	=70	=70	=70	=70	=70
[2.B-	8r	4r	4r	1r	1r
.	[4.B-	.	.	.	.
.	.	2.d	8r	.	.
.	.	.	[8f	.	.
.	4.B-]	.	4.f]	.	.
8B-L]	.	.	.	.	.
8FJ	8r	.	8r	.	.
=71	=71	=71	=71	=71	=71
8B-L	2r	2r	4r	4r	4r
8B-J	.	.	.	.	.
4r	.	.	2.b-	8r	8r
*	*	*	*	*clefG2	*clefG2
.	.	.	.	8B-	8B-
2r	4r	2a	.	8B-L	8B-L
.	.	.	.	8c	8c
.	4f	.	.	8d	8d
.	.	.	.	[8dJ	[8dJ
=72	=72	=72	=72	=72	=72
4e-	2.B-	2.d	2.g	8dL]	8dL]
.	.	.	.	8e-J	8e-J
4e-	.	.	.	4c	4c
4f	.	.	.	8AL	8AL
.	.	.	.	8B-	8B-
4e-	8cL	8fL	8b-L	8c	8c
.	[8cJ	[8fJ	[8b-J	[8cJ	[8cJ
=73	=73	=73	=73	=73	=73
4d	8cL]	8fL]	8b-L]	8cL]	8cL]
*	*	*	*	*clefF4	*clefF4
.	8dJ	8gJ	8ccJ	8B-J	8B-J
4d	4c	4f	4b-	4B-	4B-
4G	8r	8r	8r	8B-L	8B-L
*	*clefF4	*	*	*	*
.	8GL	8e-L	8aL	8c	8c
4G	8A	8f	8b-	8d	8d
*	*	*	*	*clefG2	*clefG2
.	8B-J	8gJ	8ccJ	[8dJ	[8dJ
=74	=74	=74	=74	=74	=74
4e-	2.B-	2.d	2.g	8dL]	8dL]
.	.	.	.	8c	8c
4e-	.	.	.	8c	8c
.	.	.	.	8cJ	8cJ
4f	.	.	.	8cL	8cL
.	.	.	.	8c	8c
4f	8cL	8fL	8b-L	8e-	8e-
*	*clefG2	*	*	*	*
.	[8cJ	[8fJ	8b-J	[8e-J	[8e-J
=75	=75	=75	=75	=75	=75
4d	8cL]	8fL]	8b-L	8e-L]	8e-L]
.	8dJ	8gJ	8ccJ	8dJ	8dJ
4d	4c	4f	4b-	4d	4d
4G	8r	8r	8r	8B-L	8B-L
.	8GL	8e-L	8aL	8c	8c
*	*clefF4	*	*	*	*
4G	8A	8f	8b-	8d	8d
.	8B-J	8gJ	8ccJ	[8dJ	[8dJ
=76	=76	=76	=76	=76	=76
8e-L	8r	8r	8r	8dL]	8dL]
8e-J	8B-	8d	8g	8c	8c
8r	8r	8r	8r	8c	8c
[8e-	[8B-	[8d	[8g	8cJ	8cJ
8e-]	4.B-]	4.d]	4.g]	8AL	8AL
4e-	.	.	.	8B-	8B-
.	.	.	.	8c	8c
8e-	8r	8r	8r	[8cJ	[8cJ
=77	=77	=77	=77	=77	=77
8dL	8r	8r	8r	8cL]	8cL]
*	*	*	*	*clefF4	*clefF4
8dJ	8A	8d	8f	8B-J	8B-J
8r	8r	8r	8r	4d	4d
[8d	[8A	[8d	[8f	.	.
8d]	4.A]	4.d]	4.f]	8B-L	8B-L
4d	.	.	.	8B-	8B-
.	.	.	.	8B-	8B-
*	*clefG2	*	*	*	*
8d	[8d	[8g	[8b-	[8B-J	[8B-J
=78	=78	=78	=78	=78	=78
1r	8dL]	8gL]	8b-L]	8B-L]	8B-L]
.	8c	8f	8a	8A	8A
.	8c	8f	8a	8A	8A
.	[8dJ	[8gJ	[8b-J	[8B-J	[8B-J
.	4d]	4g]	4b-]	4B-]	4B-]
.	4r	4r	8r	8r	8r
.	.	.	8b-	8B-	8B-
*	*	*	*	*clefG2	*clefG2
=79	=79	=79	=79	=79	=79
1r	1r	1r	4dd	4d	4d
.	.	.	8ee-L	8e-L	8e-L
.	.	.	[8ccJ	[8cJ	[8cJ
.	.	.	8cc]	8c]	8c]
.	.	.	4b-	4B-	4B-
.	.	.	[8dd	[8d	[8d
=80	=80	=80	=80	=80	=80
1r	1r	1r	8ddL]	8dL]	8dL]
.	.	.	8ddJ	8dJ	8dJ
.	.	.	2cc	2c	2c
.	.	.	4r	4r	4r
=81	=81	=81	=81	=81	=81
*MM96	*MM96	*MM96	*MM96	*MM96	*MM96
1r	1r	1r	1r	1f	1f
=82	=82	=82	=82	=82	=82
4B-	1r	1r	1r	4d	4d
8.B-L	.	.	.	8dL	8dL
.	.	.	.	16dL	16dL
16B-Jk	.	.	.	16dJJ	16dJJ
16r	.	.	.	8dL	8dL
8B-'L	.	.	.	.	.
.	.	.	.	16e-L	16e-L
16B-Jk	.	.	.	16fJJ	16fJJ
4B-	.	.	.	16r	16r
.	.	.	.	16B-KL	16B-KL
.	.	.	.	8B-J	8B-J
=83	=83	=83	=83	=83	=83
4A	1r	1r	1r	8dL	8dL
.	.	.	.	8dJ	8dJ
8.AL	.	.	.	8dL	8dL
.	.	.	.	16dL	16dL
16AJk	.	.	.	16dJJ	16dJJ
16r	.	.	.	8dL	8dL
8A'L	.	.	.	.	.
.	.	.	.	16e-L	16e-L
16AJk	.	.	.	16fJJ	16fJJ
4A	.	.	.	4r	4r
=84	=84	=84	=84	=84	=84
4G	1r	1r	1r	8dL	8dL
.	.	.	.	8dJ	8dJ
8.GL	.	.	.	8dL	8dL
.	.	.	.	16dL	16dL
16GJk	.	.	.	16dJJ	16dJJ
16r	.	.	.	8fL	8fL
8G'L	.	.	.	.	.
.	.	.	.	16fL	16fL
16GJk	.	.	.	[16fJJ	[16fJJ
4G	.	.	.	16fLL]	16fLL]
.	.	.	.	16e-	16e-
.	.	.	.	16d	16d
.	.	.	.	[16e-JJ	[16e-JJ
=85	=85	=85	=85	=85	=85
4F	1r	1r	1r	4e-]	4e-]
8.FL	.	.	.	4r	4r
16FJk	.	.	.	.	.
16r	.	.	.	2r	2r
8F'L	.	.	.	.	.
16FJk	.	.	.	.	.
4F	.	.	.	.	.
*	*	*	*	*clefF4	*clefF4
=86	=86	=86	=86	=86	=86
4G	1r	1r	1r	8B-L	8B-L
.	.	.	.	8B-J	8B-J
4G	.	.	.	8B-L	8B-L
.	.	.	.	16cL	16cL
.	.	.	.	[16cJJ	[16cJJ
4A	.	.	.	4c]	4c]
4F	.	.	.	16r	16r
.	.	.	.	8FL	8FL
.	.	.	.	16FJk	16FJk
*	*	*	*	*clefG2	*clefG2
=87	=87	=87	=87	=87	=87
4B-	1r	1r	1r	16dLL	16dLL
.	.	.	.	16dJ	16dJ
.	.	.	.	8e-J	8e-J
4A	.	.	.	16dKL	16dKL
.	.	.	.	8A	8A
*	*	*	*	*clefF4	*clefF4
.	.	.	.	[16B-Jk	[16B-Jk
4G	.	.	.	4B-]	4B-]
4F	.	.	.	16r	16r
.	.	.	.	16B-KL	16B-KL
.	.	.	.	8B-J	8B-J
=88	=88	=88	=88	=88	=88
4E-	1r	1r	1r	8B-L	8B-L
.	.	.	.	8B-	8B-
8.E-L	.	.	.	8B-	8B-
.	.	.	.	8B-J	8B-J
16E-Jk	.	.	.	.	.
16r	.	.	.	8B-L	8B-L
8E-'L	.	.	.	.	.
*	*	*	*	*clefG2	*clefG2
.	.	.	.	8B-J	8B-J
16E-Jk	.	.	.	.	.
8E-L	.	.	.	16cKL	16cKL
.	.	.	.	8B-	8B-
8E-J	.	.	.	.	.
.	.	.	.	[16cJk	[16cJk
=89	=89	=89	=89	=89	=89
4F	1r	1r	1r	4c]	4c]
4G	.	.	.	4r	4r
4A	.	.	.	2r	2r
4c	.	.	.	.	.
*	*clefF4	*	*	*	*
=90	=90	=90	=90	=90	=90
4B-	1B-	1d	1f	4d	4d
8.B-L	.	.	.	8dL	8dL
.	.	.	.	16dL	16dL
16B-Jk	.	.	.	16dJJ	16dJJ
16r	.	.	.	8dL	8dL
8B-'L	.	.	.	.	.
.	.	.	.	16e-L	16e-L
16B-Jk	.	.	.	16fJJ	16fJJ
4B-	.	.	.	16r	16r
.	.	.	.	8B-L	8B-L
.	.	.	.	[16dJk	[16dJk
=91	=91	=91	=91	=91	=91
4A	1A	1d	1f	16dKL]	16dKL]
.	.	.	.	8d	8d
.	.	.	.	16dJk	16dJk
8.AL	.	.	.	8dL	8dL
.	.	.	.	16dL	16dL
16AJk	.	.	.	16dJJ	16dJJ
16r	.	.	.	8dL	8dL
8A'L	.	.	.	.	.
.	.	.	.	16e-L	16e-L
16AJk	.	.	.	16fJJ	16fJJ
4A	.	.	.	4r	4r
=92	=92	=92	=92	=92	=92
4G	1d	1d	1b-	8dL	8dL
.	.	.	.	8d	8d
8.GL	.	.	.	8d	8d
.	.	.	.	8dJ	8dJ
16GJk	.	.	.	.	.
16r	.	.	.	16r	16r
8G'L	.	.	.	16fKL	16fKL
.	.	.	.	8fJ	8fJ
16GJk	.	.	.	.	.
4G	.	.	.	16fLL	16fLL
.	.	.	.	16e-	16e-
.	.	.	.	16d	16d
.	.	.	.	[16e-JJ	[16e-JJ
=93	=93	=93	=93	=93	=93
4F	1c	1e-	1g	4e-]	4e-]
8.FL	.	.	.	4r	4r
16FJk	.	.	.	.	.
16r	.	.	.	2r	2r
8F'L	.	.	.	.	.
16FJk	.	.	.	.	.
4F	.	.	.	.	.
*	*	*	*	*clefF4	*clefF4
=94	=94	=94	=94	=94	=94
4G	4B-	4b-	4b-	4B-	4B-
4G	8B-L	8b-L	8b-L	8B-L	8B-L
.	16B-L	16b-L	16b-L	16B-L	16B-L
.	16cJJ	16ccJJ	16ccJJ	16cJJ	16cJJ
4A	2r	2r	2r	16r	16r
.	.	.	.	16FKL	16FKL
.	.	.	.	8FJ	8FJ
4F	.	.	.	16r	16r
.	.	.	.	16FKL	16FKL
.	.	.	.	8FJ	8FJ
*	*clefG2	*	*	*clefG2	*clefG2
=95	=95	=95	=95	=95	=95
4B-	8dL	8ddL	8ddL	8dL	8dL
.	16e-L	16ee-L	16ee-L	16e-L	16e-L
.	16e-JJ	16ee-JJ	16ee-JJ	16e-JJ	16e-JJ
4A	8dL	8ddL	8ddL	8dL	8dL
.	16AL	16aL	16aL	16AL	16AL
.	16B-JJ	16b-JJ	16b-JJ	16B-JJ	16B-JJ
4G	2r	2r	2r	4r	4r
4F	.	.	.	8r	8r
*	*	*	*	*clefF4	*clefF4
.	.	.	.	8B-	8B-
=96	=96	=96	=96	=96	=96
4E-	1r	1r	1r	8B-L	8B-L
.	.	.	.	8B-	8B-
8.E-L	.	.	.	8B-	8B-
.	.	.	.	8B-J	8B-J
16E-Jk	.	.	.	.	.
16r	.	.	.	8B-L	8B-L
8E-'L	.	.	.	.	.
*	*	*	*	*clefG2	*clefG2
.	.	.	.	8B-J	8B-J
16E-Jk	.	.	.	.	.
8E-L	.	.	.	8B-L	8B-L
8E-J	.	.	.	16cL	16cL
.	.	.	.	[16cJJ	[16cJJ
=97	=97	=97	=97	=97	=97
1F	4r	2r	2r	4c]	4c]
.	2.g	.	.	4r	4r
.	.	2a	4r	2r	2r
.	.	.	4cc	.	.
=98	=98	=98	=98	=98	=98
1r	4g	4cc	4ee-	4e-	4e-
.	4f	4b-	4dd	4d	4d
.	8e-L	8aL	8ccL	8cL	8cL
.	8dJ	8gJ	8b-J	8B-J	8B-J
.	4d	4g	4b-	4B-	4B-
=99	=99	=99	=99	=99	=99
4B-	4d	4f	4b-	4d	4d
8.B-L	4d'	4f'	4b-'	8dL	8dL
.	.	.	.	16dL	16dL
16B-Jk	.	.	.	16dJJ	16dJJ
16r	16r	16r	16r	8dL	8dL
8B-'L	8d'L	8g'L	8b-'L	.	.
.	.	.	.	16e-L	16e-L
16B-Jk	16dJk	16gJk	16b-Jk	16fJJ	16fJJ
4B-	4d	4g	4b-	16r	16r
.	.	.	.	16B-KL	16B-KL
.	.	.	.	8B-J	8B-J
=100	=100	=100	=100	=100	=100
4A	4d	4f	4a	8dL	8dL
.	.	.	.	8dJ	8dJ
8.AL	4d'	4f'	4a'	8dL	8dL
.	.	.	.	16dL	16dL
16AJk	.	.	.	16dJJ	16dJJ
16r	16r	16r	16r	8dL	8dL
8A'L	8c'L	8f'L	8a'L	.	.
.	.	.	.	16e-L	16e-L
16AJk	16cJk	16fJk	16aJk	16fJJ	16fJJ
4A	4c	4f	4a	4r	4r
=101	=101	=101	=101	=101	=101
4G	4d	4g	4b-	8dL	8dL
.	.	.	.	8dJ	8dJ
8.GL	4d'	4g'	4b-'	8dL	8dL
.	.	.	.	16dL	16dL
16GJk	.	.	.	16dJJ	16dJJ
16r	16r	16r	16r	8fL	8fL
8G'L	8d'L	8f'L	8b-'L	.	.
.	.	.	.	16fL	16fL
16GJk	16dJk	16fJk	16b-Jk	[16fJJ	[16fJJ
4G	4d	4f	4b-	16fLL]	16fLL]
.	.	.	.	16e-	16e-
.	.	.	.	16d	16d
.	.	.	.	[16e-JJ	[16e-JJ
=102	=102	=102	=102	=102	=102
4F	4r	4r	4r	4e-]	4e-]
*	*clefF4	*	*	*	*
8.FL	8E-L	8e-L	8e-L	4r	4r
.	8FJ	8fJ	8fJ	.	.
16FJk	.	.	.	.	.
16r	8GL	8gL	8gL	2r	2r
8F'L	.	.	.	.	.
.	8FJ	8fJ	8fJ	.	.
16FJk	.	.	.	.	.
4F	4G	4g	4g	.	.
*	*clefG2	*	*	*clefF4	*clefF4
=103	=103	=103	=103	=103	=103
4G	2e-	2g	2b-	8B-L	8B-L
.	.	.	.	8B-J	8B-J
4G	.	.	.	8B-L	8B-L
.	.	.	.	16cL	16cL
.	.	.	.	[16cJJ	[16cJJ
4A	4f	2a	2cc	4c]	4c]
4F	4B-	.	.	16r	16r
.	.	.	.	8FL	8FL
.	.	.	.	16FJk	16FJk
*	*	*	*	*clefG2	*clefG2
=104	=104	=104	=104	=104	=104
4B-	4g	4b-	4dd	16dLL	16dLL
.	.	.	.	16dJ	16dJ
.	.	.	.	8e-J	8e-J
4A	4f	4a	4cc	16dKL	16dKL
.	.	.	.	8A	8A
*	*	*	*	*clefF4	*clefF4
.	.	.	.	[16B-Jk	[16B-Jk
4G	4e-	4g	4b-	4B-]	4B-]
4F	4d	4f	4a	16r	16r
.	.	.	.	16B-KL	16B-KL
.	.	.	.	8B-J	8B-J
*	*clefF4	*	*	*	*
=105	=105	=105	=105	=105	=105
4E-	1B-	1e-	1g	8B-L	8B-L
.	.	.	.	8B-	8B-
8.E-L	.	.	.	8B-	8B-
.	.	.	.	8B-J	8B-J
16E-Jk	.	.	.	.	.
16r	.	.	.	8B-L	8B-L
8E-'L	.	.	.	.	.
*	*	*	*	*clefG2	*clefG2
.	.	.	.	8B-J	8B-J
16E-Jk	.	.	.	.	.
8E-L	.	.	.	16cKL	16cKL
.	.	.	.	8B-	8B-
8E-J	.	.	.	.	.
.	.	.	.	[16cJk	[16cJk
=106	=106	=106	=106	=106	=106
4F	4c	4f	4a	4c]	4c]
4G	4G	4g	4g	4r	4r
4A	4A	4a	4a	2r	2r
4c	4C	4c	4c	.	.
*	*clefG2	*	*	*	*
=107	=107	=107	=107	=107	=107
4B-	4d	4f	4b-	4d	4d
8.B-L	4d'	4f'	8b-L	8dL	8dL
.	.	.	16b-L	16dL	16dL
16B-Jk	.	.	16b-JJ	16dJJ	16dJJ
16r	16r	16r	8b-L	8dL	8dL
8B-'L	8d'L	8g'L	.	.	.
.	.	.	16ccL	16e-L	16e-L
16B-Jk	16dJk	16gJk	16ddJJ	16fJJ	16fJJ
4B-	4d	4g	16r	16r	16r
.	.	.	8fL	8B-L	8B-L
.	.	.	[16b-Jk	[16dJk	[16dJk
=108	=108	=108	=108	=108	=108
4A	4d	4f	16b-KL]	16dKL]	16dKL]
.	.	.	8b-	8d	8d
.	.	.	16b-Jk	16dJk	16dJk
8.AL	4d'	4f'	8b-L	8dL	8dL
.	.	.	16b-L	16dL	16dL
16AJk	.	.	16b-JJ	16dJJ	16dJJ
16r	16r	16r	8b-L	8dL	8dL
8A'L	8c'L	8f'L	.	.	.
.	.	.	16ccL	16e-L	16e-L
16AJk	16cJk	16fJk	16ddJJ	16fJJ	16fJJ
4A	4c	4f	4r	4r	4r
=109	=109	=109	=109	=109	=109
4G	4d	4g	8b-L	8dL	8dL
.	.	.	8b-	8d	8d
8.GL	4d'	4g'	8b-	8d	8d
.	.	.	8b-J	8dJ	8dJ
16GJk	.	.	.	.	.
16r	16r	16r	16r	16r	16r
8G'L	8d'L	8f'L	16ddKL	16fKL	16fKL
.	.	.	8ddJ	8fJ	8fJ
16GJk	16dJk	16fJk	.	.	.
4G	4d	4f	16ddLL	16fLL	16fLL
.	.	.	16cc	16e-	16e-
.	.	.	16b-	16d	16d
.	.	.	[16ccJJ	[16e-JJ	[16e-JJ
=110	=110	=110	=110	=110	=110
4F	4r	4r	4cc]	4e-]	4e-]
*	*clefF4	*	*	*	*
8.FL	8E-L	8e-L	8e-L	4r	4r
.	8FJ	8fJ	8fJ	.	.
16FJk	.	.	.	.	.
16r	8GL	8gL	8gL	2r	2r
8F'L	.	.	.	.	.
.	8FJ	8fJ	8fJ	.	.
16FJk	.	.	.	.	.
4F	4G	4g	4g	.	.
*	*clefG2	*	*	*clefF4	*clefF4
=111	=111	=111	=111	=111	=111
4G	4d	4g	4b-	4B-	4B-
4G	8dL	8gL	8b-L	8B-L	8B-L
.	16dL	16gL	16b-L	16B-L	16B-L
.	16e-JJ	16aJJ	16ccJJ	16cJJ	16cJJ
4A	16r	16r	16r	16r	16r
.	16AKL	16dKL	16fKL	16FKL	16FKL
*	*clefF4	*	*	*	*
.	8AJ	8dJ	8fJ	8FJ	8FJ
4F	16r	16r	16r	16r	16r
.	16AKL	16dKL	16fKL	16FKL	16FKL
.	8AJ	8dJ	8fJ	8FJ	8FJ
*	*	*	*	*clefG2	*clefG2
=112	=112	=112	=112	=112	=112
4B-	8B-L	8b-L	8ddL	8dL	8dL
.	16cL	16ccL	16ee-L	16e-L	16e-L
.	16cJJ	16ccJJ	16ee-JJ	16e-JJ	16e-JJ
4A	8B-L	8b-L	8ddL	8dL	8dL
.	16FL	16fL	16aL	16AL	16AL
.	16GJJ	16gJJ	16b-JJ	16B-JJ	16B-JJ
4G	4r	4r	4r	4r	4r
4F	8r	8r	8r	8r	8r
*	*clefG2	*	*	*clefF4	*clefF4
.	8d	8g	8b-	8B-	8B-
=113	=113	=113	=113	=113	=113
4E-	8dL	8gL	8b-L	8B-L	8B-L
.	8d	8g	8b-	8B-	8B-
8.E-L	8d	8g	8b-	8B-	8B-
.	8dJ	8gJ	8b-J	8B-J	8B-J
16E-Jk	.	.	.	.	.
16r	8dL	8gL	8b-L	8B-L	8B-L
8E-'L	.	.	.	.	.
*	*	*	*	*clefG2	*clefG2
.	8dJ	8gJ	8b-J	8B-J	8B-J
16E-Jk	.	.	.	.	.
8E-L	8dL	8gL	8b-L	8B-L	8B-L
8E-J	16e-L	16aL	16ccL	16cL	16cL
.	[16e-JJ	[16aJJ	[16ccJJ	[16cJJ	[16cJJ
=114	=114	=114	=114	=114	=114
1F	1e-]	1a]	1cc]	1c]	1c]
=115	=115	=115	=115	=115	=115
1r	1r	1r	1r	2r	2r
.	.	.	.	16r	16r
*	*	*	*	*clefF4	*clefF4
.	.	.	.	16B-KL	16B-KL
.	.	.	.	8B-J	8B-J
.	.	.	.	8AL	8AL
.	.	.	.	[8B-J	[8B-J
=116	=116	=116	=116	=116	=116
1r	1r	1r	1r	1B-]	1B-]
=117	=117	=117	=117	=117	=117
1B-	1B-	1d	1f	1r	1r
==	==	==	==	==	==
*-	*-	*-	*-	*-	*-
